neru-light-classic/32x32/apps/cxmenu-cxoffice-0-cxuninstall.svg

<?xml version="1.0" encoding="UTF-8" standalone="no"?>
<svg
   xmlns:dc="http://purl.org/dc/elements/1.1/"
   xmlns:cc="http://creativecommons.org/ns#"
   xmlns:rdf="http://www.w3.org/1999/02/22-rdf-syntax-ns#"
   xmlns:svg="http://www.w3.org/2000/svg"
   xmlns="http://www.w3.org/2000/svg"
   xmlns:sodipodi="http://sodipodi.sourceforge.net/DTD/sodipodi-0.dtd"
   xmlns:inkscape="http://www.inkscape.org/namespaces/inkscape"
   width="32"
   version="1.1"
   height="32"
   viewBox="0 0 32 32"
   id="svg24"
   sodipodi:docname="cxmenu-cxoffice-0-cxuninstall.svg"
   inkscape:version="0.92.1 r">
  <metadata
     id="metadata30">
    <rdf:RDF>
      <cc:Work
         rdf:about="">
        <dc:format>image/svg+xml</dc:format>
        <dc:type
           rdf:resource="http://purl.org/dc/dcmitype/StillImage" />
        <dc:title />
      </cc:Work>
    </rdf:RDF>
  </metadata>
  <defs
     id="defs28" />
  <sodipodi:namedview
     pagecolor="#ffffff"
     bordercolor="#666666"
     borderopacity="1"
     objecttolerance="10"
     gridtolerance="10"
     guidetolerance="10"
     inkscape:pageopacity="0"
     inkscape:pageshadow="2"
     inkscape:window-width="1680"
     inkscape:window-height="965"
     id="namedview26"
     showgrid="false"
     inkscape:zoom="14.75"
     inkscape:cx="10.66062"
     inkscape:cy="13.842011"
     inkscape:window-x="0"
     inkscape:window-y="0"
     inkscape:window-maximized="1"
     inkscape:current-layer="svg24" />
  <rect
     style="opacity:1;fill:#e6e6e6;fill-opacity:1;fill-rule:evenodd;stroke:none;stroke-width:1.03534329;stroke-linecap:round;stroke-linejoin:bevel;stroke-miterlimit:4;stroke-dasharray:none;stroke-dashoffset:0;stroke-opacity:1"
     id="rect4497-3"
     width="28.203388"
     height="28.203388"
     x="1.8983059"
     y="1.8983059"
     ry="5.575182" />
  <path
     style="fill:#b3b3b3;fill-opacity:1;stroke:none;stroke-width:1px;stroke-linecap:butt;stroke-linejoin:miter;stroke-opacity:1"
     d="M 16.424075,5.7224248 C 18.645778,10.64381 28.472195,22.766599 4.5933494,20.917335 21.665329,28.397332 35.021946,21.994524 16.424075,5.7224248 Z"
     id="path4517-3-7"
     inkscape:connector-curvature="0"
     sodipodi:nodetypes="ccc" />
  <path
     style="fill:#999999;fill-opacity:1;stroke:none;stroke-width:1px;stroke-linecap:butt;stroke-linejoin:miter;stroke-opacity:1"
     d="M 14.650391 8.0058594 C 6.8761246 7.9620684 3.3551054 12.59806 10.390625 21.052734 C 11.027332 21.817873 11.736539 22.610784 12.550781 23.4375 C 13.447953 24.34842 14.451543 25.293361 15.576172 26.277344 C 15.254744 25.565347 14.770536 24.679812 14.255859 23.730469 C 13.768413 22.831343 13.264577 21.873089 12.822266 20.873047 C 10.96523 16.674446 10.452464 12.07805 19.128906 11.091797 C 19.026571 10.860423 18.931392 10.626652 18.822266 10.398438 C 18.459769 9.6403347 18.069955 8.925428 17.695312 8.234375 C 16.623966 8.0862191 15.605121 8.0112367 14.650391 8.0058594 z M 19.398438 8.5292969 C 19.428538 8.5598669 19.464291 8.5925619 19.494141 8.6230469 C 19.953952 9.092508 20.385405 9.5523812 20.787109 10.001953 C 21.064789 10.312721 21.309934 10.612898 21.560547 10.914062 C 23.237327 10.860062 25.174236 10.909202 27.40625 11.082031 C 24.585942 9.8463285 21.888632 9.0253345 19.398438 8.5292969 z "
     id="path4559" />
  <circle
     style="opacity:1;fill:#e60000;fill-opacity:1;fill-rule:nonzero;stroke:none;stroke-width:4.5316534;stroke-linecap:round;stroke-linejoin:bevel;stroke-miterlimit:10;stroke-dasharray:none;stroke-dashoffset:0;stroke-opacity:1"
     id="path4586"
     cx="21.672649"
     cy="21.714672"
     r="6" />
  <g
     aria-label="+"
     style="font-style:normal;font-weight:normal;font-size:8.80262375px;line-height:1.25;font-family:sans-serif;letter-spacing:0px;word-spacing:0px;fill:#ffffff;fill-opacity:1;stroke:#000000;stroke-width:0.74046266;stroke-opacity:1"
     id="text4584"
     transform="matrix(0.95495265,0.95495265,-0.95495265,0.95495265,-23.784588,-39.213938)" />
  <path
     style="color:#000000;font-style:normal;font-variant:normal;font-weight:normal;font-stretch:normal;font-size:12.12445927px;line-height:1.25;font-family:sans-serif;font-variant-ligatures:normal;font-variant-position:normal;font-variant-caps:normal;font-variant-numeric:normal;font-variant-alternates:normal;font-feature-settings:normal;text-indent:0;text-align:start;text-decoration:none;text-decoration-line:none;text-decoration-style:solid;text-decoration-color:#000000;letter-spacing:0px;word-spacing:0px;text-transform:none;writing-mode:lr-tb;direction:ltr;text-orientation:mixed;dominant-baseline:auto;baseline-shift:baseline;text-anchor:start;white-space:normal;shape-padding:0;clip-rule:nonzero;display:inline;overflow:visible;visibility:visible;opacity:1;isolation:auto;mix-blend-mode:normal;color-interpolation:sRGB;color-interpolation-filters:linearRGB;solid-color:#000000;solid-opacity:1;vector-effect:none;fill:#ffffff;fill-opacity:1;fill-rule:nonzero;stroke:none;stroke-width:1.5;stroke-linecap:butt;stroke-linejoin:miter;stroke-miterlimit:4;stroke-dasharray:none;stroke-dashoffset:0;stroke-opacity:1;color-rendering:auto;image-rendering:auto;shape-rendering:auto;text-rendering:auto;enable-background:accumulate"
     d="m 23.889249,17.99668 -2.157909,2.157908 -2.15889,-2.158889 -1.640163,1.640163 2.158889,2.15889 -2.157908,2.157909 1.632268,1.632268 2.157909,-2.157908 2.157612,2.157611 1.640163,-1.640163 -2.157611,-2.157612 2.157908,-2.157909 -0.490831,-0.49083 z"
     id="text4489"
     inkscape:connector-curvature="0" />
</svg>

<svg xmlns="http://www.w3.org/2000/svg" width="32" height="32"><rect width="28.203" height="28.203" x="1.898" y="1.898" ry="5.575" fill="#e6e6e6" fill-rule="evenodd"/><path d="M16.424 5.722c2.222 4.922 12.048 17.045-11.83 15.195 17.071 7.48 30.428 1.078 11.83-15.195z" fill="#b3b3b3"/><path d="M14.65 8.006c-7.774-.044-11.295 4.592-4.26 13.047a38.204 38.204 0 0 0 2.16 2.384c.898.911 1.902 1.856 3.026 2.84-.321-.712-.805-1.597-1.32-2.547-.488-.899-.991-1.857-1.434-2.857-1.857-4.199-2.37-8.795 6.307-9.781-.102-.232-.198-.465-.307-.694-.362-.758-.752-1.473-1.127-2.164a23.257 23.257 0 0 0-3.045-.228zm4.748.523l.096.094c.46.47.891.93 1.293 1.379.278.31.523.61.774.912 1.676-.054 3.613-.005 5.845.168-2.82-1.236-5.517-2.057-8.008-2.553z" fill="#999"/><circle cx="21.673" cy="21.715" r="6" fill="#e60000"/><path style="line-height:1.25;font-variant-ligatures:normal;font-variant-position:normal;font-variant-caps:normal;font-variant-numeric:normal;font-variant-alternates:normal;font-feature-settings:normal;text-indent:0;text-align:start;text-decoration-line:none;text-decoration-style:solid;text-decoration-color:#000;text-transform:none;text-orientation:mixed;white-space:normal;shape-padding:0;isolation:auto;mix-blend-mode:normal;solid-color:#000;solid-opacity:1" d="M23.89 17.997l-2.159 2.158-2.159-2.16-1.64 1.64 2.16 2.16-2.159 2.158 1.633 1.632 2.157-2.158 2.158 2.158 1.64-1.64-2.157-2.158 2.158-2.158-.491-.49z" color="#000" font-weight="400" font-size="12.124" font-family="sans-serif" letter-spacing="0" word-spacing="0" overflow="visible" fill="#fff"/></svg>
